icons/disqus-line.svg

<svg xmlns="http://www.w3.org/2000/svg" width="24" height="24" fill="none"><g clip-path="url(#a)"><g><path fill="#121212" d="M11.9504 2C17.4734 2 21.9504 6.477 21.9504 12C21.9504 17.523 17.4734 22 11.9504 22C9.6444 22 7.4584 21.216 5.7014 19.808L0.983398 20.398L2.7034 15.812C2.2074 14.614 1.9504 13.324 1.9504 12C1.9504 6.477 6.4274 2 11.9504 2ZM11.9504 4C7.5324 4 3.9504 7.582 3.9504 12C3.9504 13.178 4.2044 14.318 4.6884 15.362L4.8644 15.742L4.0174 18.002L6.3324 17.713L6.6704 18.01C8.1204 19.286 9.9784 20 11.9504 20C16.3684 20 19.9504 16.418 19.9504 12C19.9504 7.582 16.3684 4 11.9504 4ZM8.0004 7H11.7904C15.2104 7 17.2304 8.956 17.3304 11.729L17.3334 11.944V11.971C17.3334 14.785 15.3714 16.893 11.9964 16.996L11.7334 17H8.0004V7H11.7904H8.0004ZM11.8314 9.458H10.7234V14.543H11.8314C13.3974 14.543 14.4564 13.698 14.5354 12.198L14.5404 12.015V11.987C14.5404 10.387 13.4604 9.457 11.8314 9.457V9.458Z"/></g></g><defs><clipPath id="a"><rect width="24" height="24" fill="white"/></clipPath></defs></svg>

<svg width="24" height="24" fill="none" xmlns="http://www.w3.org/2000/svg"><g clip-path="url(#a)"><path d="M11.95 2c5.523 0 10 4.477 10 10s-4.477 10-10 10a9.962 9.962 0 0 1-6.249-2.192l-4.718.59 1.72-4.586A9.944 9.944 0 0 1 1.95 12c0-5.523 4.477-10 10-10Zm0 2a8 8 0 0 0-8 8c0 1.178.254 2.318.738 3.362l.176.38-.847 2.26 2.315-.289.338.297A7.96 7.96 0 0 0 11.95 20a8 8 0 0 0 0-16ZM8 7h3.79c3.42 0 5.44 1.956 5.54 4.729l.003.215v.027c0 2.814-1.962 4.922-5.337 5.025l-.263.004H8V7h3.79H8Zm3.831 2.458h-1.108v5.085h1.108c1.566 0 2.625-.845 2.704-2.345l.005-.183v-.028c0-1.6-1.08-2.53-2.709-2.53v.001Z" /></g><defs><clipPath id="a"><path fill="#fff" d="M0 0h24v24H0z"/></clipPath></defs></svg>
